X: 39533
T: Taxidermist, The
R: jig
M: 6/8
K: Gmajor
|:B|EFG B2B|AGA B2 B|AGA AGA|B3B3|
e3 d3|BAG AGA|BEE E2 D|E3E2:|
|:B|e2 f gfe|f2 d Bcd|e2 d G2 A|B3B2 B|
AAA AGA|BEE EEF|GFE F2 B|E3E2:|

